svg/Tango/actions/go-jump.svg

<?xml version="1.0" encoding="UTF-8" standalone="no"?>
<!-- Created with Inkscape (http://www.inkscape.org/) -->
<svg
   xmlns:dc="http://purl.org/dc/elements/1.1/"
   xmlns:cc="http://creativecommons.org/ns#"
   xmlns:rdf="http://www.w3.org/1999/02/22-rdf-syntax-ns#"
   xmlns:svg="http://www.w3.org/2000/svg"
   xmlns="http://www.w3.org/2000/svg"
   xmlns:xlink="http://www.w3.org/1999/xlink"
   xmlns:sodipodi="http://sodipodi.sourceforge.net/DTD/sodipodi-0.dtd"
   xmlns:inkscape="http://www.inkscape.org/namespaces/inkscape"
   sodipodi:docname="go-jump.svg"
   sodipodi:docbase="/home/tigert/cvs/freedesktop.org/tango-icon-theme/scalable/actions"
   inkscape:version="0.46"
   sodipodi:version="0.32"
   id="svg11300"
   height="48px"
   width="48px"
   inkscape:export-filename="/home/jimmac/Desktop/wi-fi.png"
   inkscape:export-xdpi="90.000000"
   inkscape:export-ydpi="90.000000"
   inkscape:output_extension="org.inkscape.output.svg.inkscape">
  <defs
     id="defs3">
    <inkscape:perspective
       sodipodi:type="inkscape:persp3d"
       inkscape:vp_x="0 : 24 : 1"
       inkscape:vp_y="0 : 1000 : 0"
       inkscape:vp_z="48 : 24 : 1"
       inkscape:persp3d-origin="24 : 16 : 1"
       id="perspective26" />
    <linearGradient
       inkscape:collect="always"
       id="linearGradient2702">
      <stop
         style="stop-color:#3a7304;stop-opacity:1;"
         offset="0"
         id="stop2704" />
      <stop
         style="stop-color:#3a7304;stop-opacity:0;"
         offset="1"
         id="stop2706" />
    </linearGradient>
    <linearGradient
       inkscape:collect="always"
       id="linearGradient2187">
      <stop
         style="stop-color:#ffffff;stop-opacity:1;"
         offset="0"
         id="stop2189" />
      <stop
         style="stop-color:#ffffff;stop-opacity:0;"
         offset="1"
         id="stop2191" />
    </linearGradient>
    <linearGradient
       id="linearGradient2161">
      <stop
         style="stop-color:#519e07;stop-opacity:1"
         offset="0"
         id="stop2163" />
      <stop
         style="stop-color:#6cc813;stop-opacity:1"
         offset="1.0000000"
         id="stop2165" />
    </linearGradient>
    <linearGradient
       id="linearGradient8662"
       inkscape:collect="always">
      <stop
         id="stop8664"
         offset="0"
         style="stop-color:#000000;stop-opacity:1;" />
      <stop
         id="stop8666"
         offset="1"
         style="stop-color:#000000;stop-opacity:0;" />
    </linearGradient>
    <radialGradient
       gradientUnits="userSpaceOnUse"
       gradientTransform="matrix(1.000000,0.000000,0.000000,0.536723,-1.160225e-14,16.87306)"
       r="15.644737"
       fy="36.421127"
       fx="24.837126"
       cy="36.421127"
       cx="24.837126"
       id="radialGradient8668"
       xlink:href="#linearGradient8662"
       inkscape:collect="always" />
    <linearGradient
       inkscape:collect="always"
       xlink:href="#linearGradient2161"
       id="linearGradient2167"
       x1="22.000000"
       y1="16.642263"
       x2="19.377108"
       y2="12.448164"
       gradientUnits="userSpaceOnUse"
       gradientTransform="matrix(1.171926,0.000000,0.000000,1.171926,-4.674553,-1.427903)" />
    <linearGradient
       inkscape:collect="always"
       xlink:href="#linearGradient2187"
       id="linearGradient2193"
       x1="14.296179"
       y1="15.230618"
       x2="10.022297"
       y2="23.105061"
       gradientUnits="userSpaceOnUse"
       gradientTransform="matrix(1.171926,0.000000,0.000000,1.171926,-4.674553,-1.427903)" />
    <linearGradient
       inkscape:collect="always"
       xlink:href="#linearGradient2702"
       id="linearGradient2708"
       x1="12.105637"
       y1="24.589863"
       x2="6.1056361"
       y2="29.839863"
       gradientUnits="userSpaceOnUse" />
  </defs>
  <sodipodi:namedview
     inkscape:window-y="160"
     inkscape:window-x="0"
     inkscape:window-height="688"
     inkscape:window-width="872"
     inkscape:showpageshadow="false"
     inkscape:document-units="px"
     inkscape:grid-bbox="true"
     showgrid="false"
     inkscape:current-layer="layer1"
     inkscape:cy="46.696516"
     inkscape:cx="30.109761"
     inkscape:zoom="4"
     inkscape:pageshadow="2"
     inkscape:pageopacity="0.0"
     borderopacity="0.25490196"
     bordercolor="#666666"
     pagecolor="#ffffff"
     id="base"
     fill="#8ae234"
     stroke="#8ae234" />
  <metadata
     id="metadata4">
    <rdf:RDF>
      <cc:Work
         rdf:about="">
        <dc:format>image/svg+xml</dc:format>
        <dc:type
           rdf:resource="http://purl.org/dc/dcmitype/StillImage" />
        <dc:creator>
          <cc:Agent>
            <dc:title>Jakub Steiner</dc:title>
          </cc:Agent>
        </dc:creator>
        <dc:source>http://jimmac.musichall.cz</dc:source>
        <cc:license
           rdf:resource="http://creativecommons.org/licenses/publicdomain/" />
        <dc:title>Go Jump</dc:title>
        <dc:subject>
          <rdf:Bag>
            <rdf:li>go</rdf:li>
            <rdf:li>jump</rdf:li>
            <rdf:li>seek</rdf:li>
            <rdf:li>arrow</rdf:li>
            <rdf:li>pointer</rdf:li>
          </rdf:Bag>
        </dc:subject>
      </cc:Work>
      <cc:License
         rdf:about="http://creativecommons.org/licenses/publicdomain/">
        <cc:permits
           rdf:resource="http://creativecommons.org/ns#Reproduction" />
        <cc:permits
           rdf:resource="http://creativecommons.org/ns#Distribution" />
        <cc:permits
           rdf:resource="http://creativecommons.org/ns#DerivativeWorks" />
      </cc:License>
    </rdf:RDF>
  </metadata>
  <g
     inkscape:groupmode="layer"
     inkscape:label="Layer 1"
     id="layer1">
    <path
       transform="matrix(1.489736,0.000000,0.000000,-1.001252,-12.26794,72.07115)"
       d="M 40.481863 36.421127 A 15.644737 8.3968935 0 1 1  9.1923885,36.421127 A 15.644737 8.3968935 0 1 1  40.481863 36.421127 z"
       sodipodi:ry="8.3968935"
       sodipodi:rx="15.644737"
       sodipodi:cy="36.421127"
       sodipodi:cx="24.837126"
       id="path8660"
       style="opacity:0.14117648;color:#000000;fill:url(#radialGradient8668);fill-opacity:1.0000000;fill-rule:evenodd;stroke:none;stroke-width:1.0000000;stroke-linecap:butt;stroke-linejoin:miter;marker:none;marker-start:none;marker-mid:none;marker-end:none;stroke-miterlimit:10.000000;stroke-dasharray:none;stroke-dashoffset:0.0000000;stroke-opacity:1.0000000;visibility:visible;display:inline;overflow:visible"
       sodipodi:type="arc" />
    <path
       style="opacity:1.0000000;color:#000000;fill:url(#linearGradient2167);fill-opacity:1.0000000;fill-rule:nonzero;stroke:url(#linearGradient2708);stroke-width:1.0000001;stroke-linecap:butt;stroke-linejoin:miter;marker:none;marker-start:none;marker-mid:none;marker-end:none;stroke-miterlimit:4.0000000;stroke-dasharray:none;stroke-dashoffset:0.0000000;stroke-opacity:1;visibility:visible;display:block;overflow:visible"
       d="M 4.3920955,35.164045 C 3.0709563,-4.8617622 38.100746,1.7948935 36.928820,22.596580 L 46.304228,22.596580 L 31.655153,34.315840 L 16.420115,22.596580 C 16.420115,22.596580 26.088504,22.596580 26.088504,22.596580 C 26.674467,8.5334680 4.6559242,4.1065510 4.3920955,35.164045 z "
       id="path1432"
       sodipodi:nodetypes="ccccccc" />
    <path
       sodipodi:nodetypes="ccccccc"
       id="path2177"
       d="M 4.3609454,33.776714 C 4.4557415,-2.2986419 38.008172,2.0411991 35.829171,23.579043 L 43.433623,23.579043 L 31.618133,32.977887 L 19.387494,23.579043 C 19.387494,23.579043 27.066938,23.579043 27.066938,23.579043 C 28.105744,5.5081081 3.1989499,4.7058695 4.3609454,33.776714 z "
       style="opacity:0.41764703;color:#000000;fill:none;fill-opacity:1.0000000;fill-rule:nonzero;stroke:url(#linearGradient2193);stroke-width:0.99999970;stroke-linecap:butt;stroke-linejoin:miter;marker:none;marker-start:none;marker-mid:none;marker-end:none;stroke-miterlimit:4.0000000;stroke-dasharray:none;stroke-dashoffset:0.0000000;stroke-opacity:1.0000000;visibility:visible;display:block;overflow:visible" />
  </g>
</svg>

<svg xmlns="http://www.w3.org/2000/svg" viewBox="0 0 48 48"><defs><linearGradient id="1" x1="21.11" y1="18.08" x2="18.03" y2="13.16" gradientUnits="userSpaceOnUse"><stop stop-color="#519e07"/><stop offset="1" stop-color="#6cc813"/></linearGradient><linearGradient id="2" x1="12.08" y1="16.421" x2="7.07" y2="25.65" gradientUnits="userSpaceOnUse"><stop stop-color="#fff"/><stop offset="1" stop-color="#fff" stop-opacity="0"/></linearGradient><linearGradient id="3" x1="12.11" y1="24.59" x2="6.106" y2="29.84" gradientUnits="userSpaceOnUse"><stop stop-color="#3a7304"/><stop offset="1" stop-color="#3a7304" stop-opacity="0"/></linearGradient><radialGradient gradientUnits="userSpaceOnUse" gradientTransform="matrix(1 0 0 .53672 0 16.873)" r="15.645" cy="36.421" cx="24.837" id="0"><stop/><stop offset="1" stop-opacity="0"/></radialGradient></defs><g color="#000"><path transform="matrix(1.48974 0 0-1.0013-12.268 72.07)" d="M40.481863 36.421127A15.644737 8.396893 0 1 1 9.192388 36.421127 15.644737 8.396893 0 1 1 40.481863 36.421127" opacity=".141" fill-rule="evenodd" fill="url(#0)"/><g display="block"><path d="m4.392 35.16c-1.321-40.03 33.709-33.369 32.537-12.567h9.375l-14.649 11.719-15.235-11.719c0 0 9.668 0 9.668 0 .586-14.06-21.433-18.49-21.696 12.567z" fill="url(#1)" stroke="url(#3)"/><path d="m4.361 33.777c.095-36.08 33.647-31.736 31.468-10.198h7.604l-11.815 9.399-12.231-9.399c0 0 7.679 0 7.679 0 1.039-18.07-23.868-18.873-22.706 10.198z" opacity=".418" fill="none" stroke="url(#2)"/></g></g></svg>
